X:1
T:Title
%%score { 1 | 2 }
L:1/8
M:4/4
K:Bb
V:1 treble nm="Grand Piano"
V:2 bass 
V:1
 z4 z2 z[Q:1/4=100] [DF] | [DB]>[DB] [DB]>[DB] [DB]>[DF] [B,D]>[CE] | %2
 [DF]>[DF] [_DG]>[DG] [=DF]3 [DF] | [DFB]2 [B,DB]2 [=EB]>[EB] [EA]>[EB] | c2 c2 z2 z F | %5
 [DB]>[DB] [DB]>[DB] [DB]>[DF] [B,D]>[CE] | [DF]>[DF] [_DG]>[DG] [=DF]3 [DF] | %7
 [EG]2 [GB]2 B>A G>A | [DB]2 [DB]4 z2 | c>c c2 F>F F2 | d>d d2 B,>B, B,2 | d3 d e>d c>B | %12
 c2 c2[K:bass] F,>E, D,>C, | [DFB]>[DFB] [DFB]2 B,>B, B,2 | c>c c2 F>F F>c | d2 [DFB]2 B>A G>A | %16
[M:7/8] [DB]2 [DB]3 z2 |] %17
V:2
 z4 z2 z [B,,F,] | [B,,F,]>[B,,F,] [B,,F,]>[B,,F,] [B,,F,]>[B,,F,] [B,,F,]>[B,,F,] | %2
 [B,,B,]>[B,,B,] [B,,B,]>[B,,B,] [B,,B,]3 [B,,B,] | B,,2 G,2 [C,G,]>[C,G,] [C,C]>[C,B,] | %4
 [F,A,E]2 [F,A,E]2 z2 z [F,A,E] | [B,,B,]>[B,,F,] [B,,F,]>[B,,F,] [B,,F,]>[B,,F,] [B,,F,]>[B,,F,] | %6
 [B,,B,]>[B,,B,] [B,,B,]>[B,,B,] [B,,B,]3 [B,,B,] | [E,B,]2 [E,E]2 [F,DF]>[F,CF] [F,B,E]>[F,CE] | %8
 [B,,B,]2 [B,,B,]4 z2 | [F,A,F]>[F,A,F] [F,A,F]2 F,>F, F,2 | %10
 [B,F]>[B,F] [B,F]2[K:bass] B,,>B,, B,,2 | [B,F]3 [B,F] [B,G]>[B,F] [A,CF]>[K:bass][G,=E] | %12
 [F,A,E]2 [F,A,E]2 z4 | B,,>B,, B,,2 z4 | [F,A,F]>[F,A,F] [F,A,F]2 F,>F, F,>[K:treble][F,A,F] | %15
 [B,F]2[K:bass] B,,2 [F,CE]>[F,CE] [F,CE]>[F,CE] |[M:7/8] [B,,B,]2 [B,,B,]3 z2 |] %17

